lib/flags/m/660.svg

<svg xmlns="http://www.w3.org/2000/svg" fill="none" viewBox="0 0 20 15"><mask id="660_svg__a" width="20" height="15" x="0" y="0" mask-type="alpha" maskUnits="userSpaceOnUse"><path fill="#fff" d="M0 0H20V15H0z"/></mask><g mask="url(#660_svg__a)"><path fill="#2E42A5" fill-rule="evenodd" d="M0 0V15H20V0H0Z" clip-rule="evenodd"/><mask id="660_svg__b" width="20" height="15" x="0" y="0" mask-type="alpha" maskUnits="userSpaceOnUse"><path fill="#fff" fill-rule="evenodd" d="M0 0V15H20V0H0Z" clip-rule="evenodd"/></mask><g mask="url(#660_svg__b)"><path fill="#fff" stroke="#E6E617" stroke-width=".5" d="M16.2189 13.4775C15.5907 13.4775 15.1668 13.3294 14.8699 13.0828C14.5707 12.8342 14.3684 12.459 14.2371 11.9421C14.1054 11.4238 14.0506 10.7854 14.0301 10.0357C14.0157 9.50907 14.0184 8.93834 14.0212 8.3245C14.0221 8.14356 14.0229 7.95886 14.0234 7.77045H18.476C18.555 9.24481 18.5766 10.661 18.2921 11.7231C18.1434 12.2782 17.9168 12.7133 17.5918 13.0092C17.2719 13.3005 16.8343 13.4775 16.2189 13.4775Z"/><path fill="#82E5FF" fill-rule="evenodd" d="M14.2458 12.6962C14.6193 13.5296 15.2729 13.9462 16.2063 13.9462C17.1335 13.9462 17.7891 13.5351 18.1731 12.7129L14.2458 12.6962Z" clip-rule="evenodd"/><path fill="#E18600" fill-rule="evenodd" d="M14.6531 9.75C14.6531 10.5794 15.3285 11.25 16.1594 11.25C16.9903 11.25 17.6656 10.5794 17.6656 9.75C17.6656 8.92057 16.9903 8.25 16.1594 8.25C15.3285 8.25 14.6531 8.92057 14.6531 9.75ZM17.0406 9.75C17.0406 10.2332 16.6461 10.625 16.1594 10.625C15.6727 10.625 15.2781 10.2332 15.2781 9.75C15.2781 9.26675 15.6727 8.875 16.1594 8.875C16.6461 8.875 17.0406 9.26675 17.0406 9.75Z" clip-rule="evenodd"/><path fill="#E18600" fill-rule="evenodd" d="M15.9052 8.04108C15.9052 8.04108 15.357 8.2897 15.476 8.75709 15.595 9.22448 15.7294 9.29108 15.7294 9.29108 15.7294 9.29108 15.923 8.27922 16.7048 8.27922L15.9052 8.04108zM14.9076 10.5619C14.9076 10.5619 15.3646 10.9537 15.7379 10.6483 16.1112 10.343 16.1148 10.193 16.1148 10.193 16.1148 10.193 15.1159 10.4451 14.7855 9.73663L14.9076 10.5619zM17.6503 10.5093C17.6503 10.5093 17.6671 9.90758 17.1949 9.80962 16.7226 9.71165 16.6038 9.80329 16.6038 9.80329 16.6038 9.80329 17.4284 10.4209 17.0857 11.1235L17.6503 10.5093z" clip-rule="evenodd"/><path fill="#2E42A5" d="M0 0H11V9H0z"/><mask id="660_svg__c" width="11" height="9" x="0" y="0" mask-type="alpha" maskUnits="userSpaceOnUse"><path fill="#fff" d="M0 0H11V9H0z"/></mask><g mask="url(#660_svg__c)"><path fill="#F7FCFF" d="M-1.25269 8.12488L1.22291 9.21063L11.3062 1.18046L12.612 -0.432999L9.96468 -0.795888L5.85197 2.66454L2.54165 4.99607L-1.25269 8.12488Z"/><path fill="#F50100" d="M-0.913757 8.88555L0.347444 9.51562L12.1431 -0.582947H10.3722L-0.913757 8.88555Z"/><path fill="#F7FCFF" d="M12.5026 8.12487L10.3055 9.52057L-0.0562172 1.18044L-1.36204 -0.433015L1.28526 -0.795905L5.39797 2.66453L8.70828 4.99605L12.5026 8.12487Z"/><path fill="#F50100" d="M12.4182 8.67082L11.157 9.3009L6.13425 4.97718L4.64512 4.4941L-1.48769 -0.427482H0.283185L6.41255 4.37728L8.04064 4.95655L12.4182 8.67082Z"/><mask id="660_svg__d" width="13" height="11" x="-1" y="-1" fill="#000" maskUnits="userSpaceOnUse"><path fill="#fff" d="M-1-1H12V10H-1z"/><path fill-rule="evenodd" d="M6 0H5V4H0V5H5V9H6V5H11V4H6V0Z" clip-rule="evenodd"/></mask><path fill="#F50100" fill-rule="evenodd" d="M6 0H5V4H0V5H5V9H6V5H11V4H6V0Z" clip-rule="evenodd"/><path fill="#F7FCFF" d="M5 0V-0.9375H4.0625V0H5ZM6 0H6.9375V-0.9375H6V0ZM5 4V4.9375H5.9375V4H5ZM0 4V3.0625H-0.9375V4H0ZM0 5H-0.9375V5.9375H0V5ZM5 5H5.9375V4.0625H5V5ZM5 9H4.0625V9.9375H5V9ZM6 9V9.9375H6.9375V9H6ZM6 5V4.0625H5.0625V5H6ZM11 5V5.9375H11.9375V5H11ZM11 4H11.9375V3.0625H11V4ZM6 4H5.0625V4.9375H6V4ZM5 0.9375H6V-0.9375H5V0.9375ZM5.9375 4V0H4.0625V4H5.9375ZM0 4.9375H5V3.0625H0V4.9375ZM0.9375 5V4H-0.9375V5H0.9375ZM5 4.0625H0V5.9375H5V4.0625ZM5.9375 9V5H4.0625V9H5.9375ZM6 8.0625H5V9.9375H6V8.0625ZM5.0625 5V9H6.9375V5H5.0625ZM11 4.0625H6V5.9375H11V4.0625ZM10.0625 4V5H11.9375V4H10.0625ZM6 4.9375H11V3.0625H6V4.9375ZM5.0625 0V4H6.9375V0H5.0625Z" mask="url(#660_svg__d)"/></g></g></g></svg>

<svg xmlns="http://www.w3.org/2000/svg" fill="none" viewBox="0 0 20 15"><mask id="660_svg__a" width="20" height="15" x="0" y="0" maskUnits="userSpaceOnUse"><path fill="#fff" d="M0 0h20v15H0z"/></mask><g mask="url(#660_svg__a)"><path fill="#2E42A5" fill-rule="evenodd" d="M0 0v15h20V0H0z" clip-rule="evenodd"/><mask id="660_svg__b" width="20" height="15" x="0" y="0" maskUnits="userSpaceOnUse"><path fill="#fff" fill-rule="evenodd" d="M0 0v15h20V0H0z" clip-rule="evenodd"/></mask><g mask="url(#660_svg__b)"><path fill="#fff" stroke="#E6E617" stroke-width=".5" d="M16.219 13.477c-.628 0-1.052-.148-1.35-.394-.298-.249-.5-.624-.632-1.14-.132-.52-.186-1.158-.207-1.907a55.84 55.84 0 01-.009-1.711l.002-.555h4.453c.079 1.475.1 2.891-.184 3.953-.149.555-.375.99-.7 1.286-.32.291-.758.468-1.373.468z"/><path fill="#82E5FF" fill-rule="evenodd" d="M14.246 12.696c.373.834 1.027 1.25 1.96 1.25.928 0 1.583-.41 1.967-1.233l-3.927-.017z" clip-rule="evenodd"/><path fill="#E18600" fill-rule="evenodd" d="M14.653 9.75c0 .83.675 1.5 1.506 1.5s1.507-.67 1.507-1.5-.676-1.5-1.507-1.5c-.83 0-1.506.67-1.506 1.5zm2.388 0a.878.878 0 01-.882.875.878.878 0 01-.88-.875c0-.483.394-.875.88-.875.487 0 .882.392.882.875z" clip-rule="evenodd"/><path fill="#E18600" fill-rule="evenodd" d="M15.905 8.041s-.548.249-.429.716c.119.467.253.534.253.534s.194-1.012.976-1.012l-.8-.238zm-.997 2.521s.457.392.83.086c.373-.305.377-.455.377-.455s-1 .252-1.33-.456l.123.825zm2.742-.052s.017-.602-.455-.7c-.472-.098-.591-.007-.591-.007s.824.618.482 1.32l.564-.614z" clip-rule="evenodd"/><path fill="#2E42A5" d="M0 0h11v9H0z"/><mask id="660_svg__c" width="11" height="9" x="0" y="0" maskUnits="userSpaceOnUse"><path fill="#fff" d="M0 0h11v9H0z"/></mask><g mask="url(#660_svg__c)"><path fill="#F7FCFF" d="M-1.253 8.125L1.223 9.21l10.083-8.03 1.306-1.614-2.647-.363-4.113 3.46-3.31 2.332-3.795 3.129z"/><path fill="#F50100" d="M-.914 8.886l1.261.63L12.143-.583h-1.77L-.915 8.886z"/><path fill="#F7FCFF" d="M12.503 8.125L10.306 9.52-.056 1.18-1.362-.434l2.647-.363 4.113 3.46 3.31 2.332 3.795 3.129z"/><path fill="#F50100" d="M12.418 8.67l-1.261.63-5.023-4.323-1.489-.483-6.133-4.921H.283l6.13 4.804 1.628.58 4.377 3.714z"/><mask id="660_svg__d" width="13" height="11" x="-1" y="-1" fill="#000" maskUnits="userSpaceOnUse"><path fill="#fff" d="M-1-1h13v11H-1z"/><path fill-rule="evenodd" d="M6 0H5v4H0v1h5v4h1V5h5V4H6V0z" clip-rule="evenodd"/></mask><path fill="#F50100" fill-rule="evenodd" d="M6 0H5v4H0v1h5v4h1V5h5V4H6V0z" clip-rule="evenodd"/><path fill="#F7FCFF" d="M5 0v-.938h-.938V0H5zm1 0h.938v-.938H6V0zM5 4v.938h.938V4H5zM0 4v-.938h-.938V4H0zm0 1h-.938v.938H0V5zm5 0h.938v-.938H5V5zm0 4h-.938v.938H5V9zm1 0v.938h.938V9H6zm0-4v-.938h-.938V5H6zm5 0v.938h.938V5H11zm0-1h.938v-.938H11V4zM6 4h-.938v.938H6V4zM5 .937h1V-.938H5V.938zM5.938 4V0H4.063v4h1.875zM0 4.938h5V3.063H0v1.874zM.938 5V4H-.938v1H.938zM5 4.062H0v1.875h5V4.063zM5.938 9V5H4.063v4h1.875zM6 8.062H5v1.876h1V8.062zM5.062 5v4h1.875V5H5.063zM11 4.062H6v1.875h5V4.063zM10.062 4v1h1.876V4h-1.876zM6 4.938h5V3.063H6v1.874zM5.062 0v4h1.875V0H5.063z" mask="url(#660_svg__d)"/></g></g></g></svg>
